actions/22/draw-cross.svg

<svg xmlns="http://www.w3.org/2000/svg" viewBox="0 0 22 22">
  <defs id="defs3051">
    <style type="text/css" id="current-color-scheme">
      .ColorScheme-Text {
        color:#4d4d4d;
      }
      </style>
  </defs>
 <path 
    style="fill:currentColor;fill-opacity:1;stroke:none" 
	d="m10 4v1 5h-5-1v4h1 5v5 1h4v-1-5h6v-1-2-1h-1-5v-5-1h-4m1 1h2v5 1h1 5v2h-5-1v6h-2v-6h-6v-2h6v-1-5" transform="translate(-.99999-.99999)"
    class="ColorScheme-Text"
    />  
</svg>

<svg xmlns="http://www.w3.org/2000/svg" viewBox="0 0 24 24">
  <defs id="defs3051">
    <style type="text/css" id="current-color-scheme">
      .ColorScheme-Text {
        color:#4d4d4d;
      }
      </style>
  </defs>
 <path style="fill:currentColor;fill-opacity:1;stroke:none" 
     d="M 10 4 L 10 5 L 10 10 L 5 10 L 4 10 L 4 14 L 5 14 L 10 14 L 10 19 L 10 20 L 14 20 L 14 19 L 14 14 L 20 14 L 20 13 L 20 11 L 20 10 L 19 10 L 14 10 L 14 5 L 14 4 L 10 4 z M 11 5 L 13 5 L 13 10 L 13 11 L 14 11 L 19 11 L 19 13 L 14 13 L 13 13 L 13 19 L 11 19 L 11 13 L 5 13 L 5 11 L 11 11 L 11 10 L 11 5 z "
     class="ColorScheme-Text"
     />
</svg>
